apps/symbolic/google-chrome-symbolic.svg

<svg xmlns="http://www.w3.org/2000/svg" viewBox="0 0 24 24">
  <path fill="#bebebe" d="M12 19.2l3.114-5.4h-.009c.306-.54.495-1.143.495-1.8a3.57 3.57 0 0 0-1.242-2.7h4.311c.342.837.531 1.746.531 2.7a7.2 7.2 0 0 1-7.2 7.2M4.8 12c0-1.314.351-2.538.963-3.6l3.123 5.4h.009A3.564 3.564 0 0 0 12 15.6a3.58 3.58 0 0 0 1.161-.207l-2.16 3.726C7.5 18.633 4.8 15.636 4.8 12m9.9 0a2.7 2.7 0 0 1-2.7 2.7A2.7 2.7 0 0 1 9.3 12 2.7 2.7 0 0 1 12 9.3a2.7 2.7 0 0 1 2.7 2.7M12 4.8a7.183 7.183 0 0 1 6.228 3.6H12a3.601 3.601 0 0 0-3.528 2.889L6.33 7.572A7.183 7.183 0 0 1 12 4.8M12 3a9 9 0 0 0-9 9 9 9 0 0 0 9 9 9 9 0 0 0 9-9 9 9 0 0 0-9-9z"/>
</svg>

<?xml version="1.0" encoding="UTF-8" standalone="no"?>
<svg
   xmlns:dc="http://purl.org/dc/elements/1.1/"
   xmlns:cc="http://creativecommons.org/ns#"
   xmlns:rdf="http://www.w3.org/1999/02/22-rdf-syntax-ns#"
   xmlns:svg="http://www.w3.org/2000/svg"
   xmlns="http://www.w3.org/2000/svg"
   xmlns:sodipodi="http://sodipodi.sourceforge.net/DTD/sodipodi-0.dtd"
   xmlns:inkscape="http://www.inkscape.org/namespaces/inkscape"
   version="1.1"
   width="24"
   height="24"
   viewBox="0 0 24 24"
   id="svg2"
   inkscape:version="0.92.1 r15371"
   sodipodi:docname="google-chrome-symbolic.svg">
  <metadata
     id="metadata10">
    <rdf:RDF>
      <cc:Work
         rdf:about="">
        <dc:format>image/svg+xml</dc:format>
        <dc:type
           rdf:resource="http://purl.org/dc/dcmitype/StillImage" />
      </cc:Work>
    </rdf:RDF>
  </metadata>
  <defs
     id="defs8" />
  <sodipodi:namedview
     pagecolor="#ffffff"
     bordercolor="#666666"
     borderopacity="1"
     objecttolerance="10"
     gridtolerance="10"
     guidetolerance="10"
     inkscape:pageopacity="0"
     inkscape:pageshadow="2"
     inkscape:window-width="640"
     inkscape:window-height="480"
     id="namedview6"
     showgrid="false"
     inkscape:zoom="25.291667"
     inkscape:cx="10.576606"
     inkscape:cy="12"
     inkscape:current-layer="svg2" />
  <path
     d="m 12,19.2 3.114,-5.4 H 15.105 C 15.411,13.26 15.6,12.657 15.6,12 15.6,10.92 15.114,9.957 14.358,9.3 h 4.311 C 19.011,10.137 19.2,11.046 19.2,12 A 7.2,7.2 0 0 1 12,19.2 M 4.8,12 c 0,-1.314 0.351,-2.538 0.963,-3.6 l 3.123,5.4 h 0.009 c 0.621,1.071 1.755,1.8 3.105,1.8 0.405,0 0.792,-0.081 1.161,-0.207 l -2.16,3.726 C 7.5,18.633 4.8,15.636 4.8,12 m 9.9,0 A 2.7,2.7 0 0 1 12,14.7 2.7,2.7 0 0 1 9.3,12 2.7,2.7 0 0 1 12,9.3 2.7,2.7 0 0 1 14.7,12 M 12,4.8 c 2.664,0 4.986,1.449 6.228,3.6 H 12 c -1.746,0 -3.195,1.242 -3.528,2.889 L 6.33,7.572 C 7.644,5.889 9.696,4.8 12,4.8 M 12,3 a 9,9 0 0 0 -9,9 9,9 0 0 0 9,9 9,9 0 0 0 9,-9 9,9 0 0 0 -9,-9 z"
     id="path4"
     style="fill:#bebebe;fill-opacity:1;stroke-width:0.81818181"
     inkscape:connector-curvature="0" />
</svg>
